static/cart-small.svg

<svg width="31" height="31" viewBox="0 0 31 31" fill="none" xmlns="http://www.w3.org/2000/svg">
<path d="M26.339 5.82986C25.6454 4.09504 23.9904 2.97491 22.1226 2.97491H21.8574V2.06665H9.1426V2.97485H8.87739C7.00955 2.97485 5.35456 4.09504 4.66097 5.8298L1.74635 12.9651H0V14.7815H1.30643C1.72413 14.7815 2.08606 15.0645 2.18803 15.4689L5.19315 27.2498C5.49643 28.464 6.5838 29.3127 7.83616 29.3127H23.1638C24.4162 29.3127 25.5641 28.4639 25.8674 27.2489L28.812 15.4697C28.914 15.0644 29.2758 14.7815 29.6936 14.7815H31V12.9651H29.2537L26.339 5.82986ZM10.959 25.6799H9.1426V16.5979H10.959V25.6799ZM16.4082 25.6799H14.5918V16.5979H16.4082V25.6799ZM21.8574 25.6799H20.041V16.5979H21.8574V25.6799ZM6.34794 6.50391C6.76387 5.4636 7.75726 4.79131 8.87739 4.79131H9.1426V5.69945H21.8575V4.79125H22.1227C23.2429 4.79125 24.2362 5.46354 24.6521 6.50385L27.2971 12.9651H3.70286L6.34794 6.50391Z" fill="white"/>
</svg>

<svg width="31" height="31" fill="none" xmlns="http://www.w3.org/2000/svg"><path d="M26.339 5.83a4.519 4.519 0 00-4.216-2.855h-.266v-.908H9.143v.908h-.266A4.519 4.519 0 004.661 5.83l-2.915 7.135H0v1.816h1.306c.418 0 .78.284.882.688l3.005 11.78a2.72 2.72 0 002.643 2.064h15.328c1.252 0 2.4-.85 2.703-2.064l2.945-11.78a.908.908 0 01.882-.688H31v-1.816h-1.746L26.339 5.83zm-15.38 19.85H9.143v-9.082h1.816v9.082zm5.45 0h-1.817v-9.082h1.816v9.082zm5.448 0h-1.816v-9.082h1.816v9.082zM6.347 6.504a2.711 2.711 0 012.53-1.713h.266V5.7h12.715v-.908h.265c1.12 0 2.113.673 2.53 1.713l2.644 6.461H3.703l2.645-6.461z" fill="#fff"/></svg>
